X:166
T:Ham Frolick. VWMLa.166
T:Greensleeves,aka. VWMLa.166
R:jig
S:Anon. MS, late 18thC, Vaughan Williams Mem. Library
N:...ish.
N:I can hear no resemblance to Greensleeeves. PJH.
O:England;Yorkshire
Z:vmp/efdss.Simon Wilson. Reviewed PJH 2008.
M:6/8
L:1/8
Q:3/8=100
K:G
d|g2f gab|afd def|gfg dcd|{c}BAB G2d|\
g2f gab|afd dgb|afd Ad^c|d3- d2:|
|:d|Bcd dBd|ece d2d|g2d dcB|AFD D2d|\
Bcd dBd|ece dgb|bag dgf|g3- g2:|

